X: 38320
T: Stack Of Barley, The
R: hornpipe
M: 4/4
K: Gmajor
gf|efed BedB|AGEG AcBA|GFGA BABd|e2 A2A2 gf|
efed BedB|AGEG AcBA|GFGA BdAc|B2 G2 G2:|
dc|BGBd g2 fg|agfg edBd|g2 fg edBd|e2 A2 A2 fg|
agfa g2 fe|dBAG AcBA|GFGA BdAc|B2 A2 A2:|

